img/twitter.svg

<svg height="20" viewBox="0 0 25 20" width="25" xmlns="http://www.w3.org/2000/svg"><path d="m33 12.3671749c-.919788.4016363-1.9090891.6728648-2.9462433.7948432 1.0588141-.6252634 1.871814-1.613487 2.2556467-2.7931077-.9913159.5786538-2.0894199.9986364-3.2570369 1.2247428-.9354033-.980786-2.2687434-1.5936532-3.7446354-1.5936532-2.8324032 0-5.128851 2.2605677-5.128851 5.048717 0 .3956861.0453346.7809595.1334852 1.1508615-4.2629607-.2107351-8.0423526-2.2208999-10.57252528-5.275815-.44125647.7452584-.69462634 1.6129912-.69462634 2.5382422 0 1.7513326.90618766 3.2968886 2.28234372 4.2028015-.8407044-.0262799-1.63254823-.2533779-2.32364855-.6322052-.00050372.0213214-.00050372.0431387-.00050372.0639643 0 2.4465104 1.76905567 4.4864261 4.11486777 4.9500433-.429671.1160283-.8840241.1775134-1.3509702.1775134-.3314461 0-.6518104-.0317343-.9651226-.0902442.6528178 2.0057022 2.5462916 3.4654766 4.7913602 3.5061361-1.7559589 1.3546547-3.9672785 2.1613983-6.37051437 2.1613983-.4130483 0-.82257057-.0238007-1.22302593-.0709062 2.2687433 1.4334945 4.9656465 2.269493 7.8620217 2.269493 9.4341239 0 14.5931978-7.6930705 14.5931978-14.3661832 0-.2191645-.0050372-.4368415-.0146078-.6530309 1.0023977-.7120367 1.871814-1.6010908 2.5593883-2.613611" fill="#fff" fill-rule="evenodd" transform="translate(-8 -10)"/></svg>

<svg width="25px" height="20px" viewBox="0 0 25 20" version="1.1" xmlns="http://www.w3.org/2000/svg" xmlns:xlink="http://www.w3.org/1999/xlink">
    <g id="Symbols" stroke="none" stroke-width="1" fill="none" fill-rule="evenodd">
        <g id="twitter_icon/hover" transform="translate(-8.000000, -10.000000)" fill="#FFFFFF">
            <g id="twitter_icon">
                <path d="M33,12.3671749 C32.080212,12.7688112 31.0909109,13.0400397 30.0537567,13.1620181 C31.1125708,12.5367547 31.9255707,11.5485311 32.3094034,10.3689104 C31.3180875,10.9475642 30.2199835,11.3675468 29.0523665,11.5936532 C28.1169632,10.6128672 26.7836231,10 25.3077311,10 C22.4753279,10 20.1788801,12.2605677 20.1788801,15.048717 C20.1788801,15.4444031 20.2242147,15.8296765 20.3123653,16.1995785 C16.0494046,15.9888434 12.2700127,13.9786786 9.73984002,10.9237635 C9.29858355,11.6690219 9.04521368,12.5367547 9.04521368,13.4620057 C9.04521368,15.2133383 9.95140134,16.7588943 11.3275574,17.6648072 C10.486853,17.6385273 9.69500917,17.4114293 9.00390885,17.032602 C9.00340513,17.0539234 9.00340513,17.0757407 9.00340513,17.0965663 C9.00340513,19.5430767 10.7724608,21.5829924 13.1182729,22.0466096 C12.6886019,22.1626379 12.2342488,22.224123 11.7673027,22.224123 C11.4358566,22.224123 11.1154923,22.1923887 10.8021801,22.1338788 C11.4549979,24.139581 13.3484717,25.5993554 15.5935403,25.6400149 C13.8375814,26.9946696 11.6262618,27.8014132 9.22302593,27.8014132 C8.80997763,27.8014132 8.40045536,27.7776125 8,27.730507 C10.2687433,29.1640015 12.9656465,30 15.8620217,30 C25.2961456,30 30.4552195,22.3069295 30.4552195,15.6338168 C30.4552195,15.4146523 30.4501823,15.1969753 30.4406117,14.9807859 C31.4430094,14.2687492 32.3124257,13.3796951 33,12.3671749" id="Fill-4"></path>
            </g>
        </g>
    </g>
</svg>
